local_wallet_v0.5.18/kna/img/tabs-iconset-exchange.svg

<?xml version="1.0" encoding="utf-8"?>
<!-- Generator: Adobe Illustrator 21.0.0, SVG Export Plug-In . SVG Version: 6.00 Build 0)  -->
<svg version="1.1"
	 id="Слой_1" image-rendering="optimizeQuality" text-rendering="geometricPrecision" shape-rendering="geometricPrecision"
	 xmlns="http://www.w3.org/2000/svg" xmlns:xlink="http://www.w3.org/1999/xlink" x="0px" y="0px" viewBox="0 0 24 24"
	 style="enable-background:new 0 0 24 24;" xml:space="preserve">
<style type="text/css">
	.st0{fill:#00AEEF;}
	.st1{fill:#FFFFFF;}
</style>
<circle class="st0" cx="12" cy="12" r="12"/>
<circle class="st1" cx="12" cy="12" r="11"/>
<ellipse transform="matrix(0.7071 -0.7071 0.7071 0.7071 -4.9746 11.9898)" class="st1" cx="12" cy="12" rx="10.4" ry="10.4"/>
<g>
	<path class="st0" d="M15.5,9.8c0.6,0,1.1,0,1.7,0c0,2.5,0,5,0,7.5c-0.6,0-1.1,0-1.7,0C15.5,14.8,15.5,12.4,15.5,9.8z"/>
	<path class="st0" d="M15.5,7.4c-0.1-0.2-0.2-0.4-0.4-0.7c0.7,0.1,1.4,0.1,2.1,0.2c-0.3,0.7-0.6,1.3-0.9,1.9
		c-0.2-0.3-0.3-0.5-0.4-0.7c-1.5,0.8-3,1.7-4.5,2.5C10,11.4,8.5,12.3,7,13.1c-0.1-0.2-0.3-0.4-0.4-0.7C9.6,10.7,12.5,9,15.5,7.4z"/>
	<path class="st0" d="M14.2,17.4c-0.6,0-1.1,0-1.7,0c0-2,0-3.9,0-5.9c0.5,0,1.1,0,1.7,0C14.2,13.4,14.2,15.3,14.2,17.4z"/>
	<path class="st0" d="M11.3,13c0,0.1,0,0.3,0,0.4c0,1.3,0,2.6,0,4c-0.6,0-1.2,0-1.8,0c0-1.4,0-2.9,0-4.4C10.1,13,10.6,13,11.3,13z"
		/>
	<path class="st0" d="M8.3,14.4c0,1,0,1.9,0,2.9c-0.6,0-1.1,0-1.7,0c0-1,0-1.9,0-2.9C7.1,14.4,7.7,14.4,8.3,14.4z"/>
</g>
</svg>

<?xml version="1.0" encoding="UTF-8" standalone="no"?>
<!-- Generator: Adobe Illustrator 21.0.0, SVG Export Plug-In . SVG Version: 6.00 Build 0)  -->

<svg
   xmlns:dc="http://purl.org/dc/elements/1.1/"
   xmlns:cc="http://creativecommons.org/ns#"
   xmlns:rdf="http://www.w3.org/1999/02/22-rdf-syntax-ns#"
   xmlns:svg="http://www.w3.org/2000/svg"
   xmlns="http://www.w3.org/2000/svg"
   xmlns:sodipodi="http://sodipodi.sourceforge.net/DTD/sodipodi-0.dtd"
   xmlns:inkscape="http://www.inkscape.org/namespaces/inkscape"
   version="1.1"
   id="Слой_1"
   x="0px"
   y="0px"
   viewBox="0 0 24 24"
   style="image-rendering:optimizeQuality;shape-rendering:geometricPrecision;text-rendering:geometricPrecision"
   xml:space="preserve"
   sodipodi:docname="tabs-iconset-exchange.svg"
   width="24"
   height="24"
   inkscape:version="0.92.2pre0 (973e216, 2017-07-25)"><metadata
     id="metadata27"><rdf:RDF><cc:Work
         rdf:about=""><dc:format>image/svg+xml</dc:format><dc:type
           rdf:resource="http://purl.org/dc/dcmitype/StillImage" /></cc:Work></rdf:RDF></metadata><defs
     id="defs25" /><sodipodi:namedview
     pagecolor="#ffffff"
     bordercolor="#666666"
     borderopacity="1"
     objecttolerance="10"
     gridtolerance="10"
     guidetolerance="10"
     inkscape:pageopacity="0"
     inkscape:pageshadow="2"
     inkscape:window-width="1366"
     inkscape:window-height="696"
     id="namedview23"
     showgrid="false"
     inkscape:zoom="9.8333333"
     inkscape:cx="0.71186474"
     inkscape:cy="12.431779"
     inkscape:window-x="0"
     inkscape:window-y="0"
     inkscape:window-maximized="1"
     inkscape:current-layer="Слой_1" /><style
     type="text/css"
     id="style2">
	.st0{fill:#00AEEF;}
	.st1{fill:#FFFFFF;}
</style><path
     style="fill:#00aeef;fill-opacity:1;image-rendering:optimizeQuality;shape-rendering:geometricPrecision;text-rendering:geometricPrecision"
     inkscape:connector-curvature="0"
     class="st0"
     d="M 21.999999,24 H 2 C 0.89999995,24 0,23.1 0,22 V 2 C 0,0.90000003 0.89999995,0 2,0 h 19.999999 c 1.1,0 2,0.90000003 2,2 v 20 c 0,1.1 -0.9,2 -2,2 z"
     id="path820" /><path
     style="fill:#ffffff;image-rendering:optimizeQuality;shape-rendering:geometricPrecision;text-rendering:geometricPrecision"
     inkscape:connector-curvature="0"
     class="st1"
     d="M 21.599999,23 H 2.3999998 c -0.8,0 -1.40000005,-0.6 -1.40000005,-1.4 V 2.4 C 0.99999975,1.6 1.5999998,1 2.3999998,1 H 21.699999 c 0.7,0 1.3,0.6 1.3,1.4 v 19.3 c 0,0.7 -0.6,1.3 -1.4,1.3 z"
     id="path822" /><g
     id="g20"
     style="fill:#00aeef;fill-opacity:1"
     transform="translate(0.09999963,-0.04999994)"><path
       class="st0"
       d="m 15.5,9.8 c 0.6,0 1.1,0 1.7,0 0,2.5 0,5 0,7.5 -0.6,0 -1.1,0 -1.7,0 0,-2.5 0,-4.9 0,-7.5 z"
       id="path10"
       inkscape:connector-curvature="0"
       style="fill:#00aeef;fill-opacity:1" /><path
       class="st0"
       d="M 15.5,7.4 C 15.4,7.2 15.3,7 15.1,6.7 15.8,6.8 16.5,6.8 17.2,6.9 16.9,7.6 16.6,8.2 16.3,8.8 16.1,8.5 16,8.3 15.9,8.1 14.4,8.9 12.9,9.8 11.4,10.6 10,11.4 8.5,12.3 7,13.1 6.9,12.9 6.7,12.7 6.6,12.4 c 3,-1.7 5.9,-3.4 8.9,-5 z"
       id="path12"
       inkscape:connector-curvature="0"
       style="fill:#00aeef;fill-opacity:1" /><path
       class="st0"
       d="m 14.2,17.4 c -0.6,0 -1.1,0 -1.7,0 0,-2 0,-3.9 0,-5.9 0.5,0 1.1,0 1.7,0 0,1.9 0,3.8 0,5.9 z"
       id="path14"
       inkscape:connector-curvature="0"
       style="fill:#00aeef;fill-opacity:1" /><path
       class="st0"
       d="m 11.3,13 c 0,0.1 0,0.3 0,0.4 0,1.3 0,2.6 0,4 -0.6,0 -1.2,0 -1.8,0 0,-1.4 0,-2.9 0,-4.4 0.6,0 1.1,0 1.8,0 z"
       id="path16"
       inkscape:connector-curvature="0"
       style="fill:#00aeef;fill-opacity:1" /><path
       class="st0"
       d="m 8.3,14.4 c 0,1 0,1.9 0,2.9 -0.6,0 -1.1,0 -1.7,0 0,-1 0,-1.9 0,-2.9 0.5,0 1.1,0 1.7,0 z"
       id="path18"
       inkscape:connector-curvature="0"
       style="fill:#00aeef;fill-opacity:1" /></g><style
     id="style2-6"
     type="text/css">
	.st0{fill:#3F58A7;}
	.st1{fill:#FFFFFF;}
</style><style
     type="text/css"
     id="style21">
	.st0{fill:#00AEEF;}
	.st1{fill:#FFFFFF;}
</style><style
     type="text/css"
     id="style60">
	.st0{fill:url(#SVGID_1_);}
	.st1{fill:#FFFFFF;}
</style><style
     type="text/css"
     id="style818">
	.st0{fill:#21409A;}
	.st1{fill:#FFFFFF;}
</style></svg>
